!!!!SEGMENT: pl-sa--398-a-viii--001-006_luna-georgius--missa-solemnis-agnus.krn
!!!cenid: 17xx:478
!!!COM: Luna, Georgius
!!!COM-rismID: pe41010079
!!!CDT:
!!!CNT:
!!!OPR: Missa Solemnis
!!!OTL: Agnus
!!!OMV: 006
!!!PDT:
!!!AGN: Sacred; Mass
!!!YEC: Copyright 2022 Narodowy Instytut Fryderyka Chopina (https://polishscores.org)
!!!YEM: License CC-BY-4.0 (https://creativecommons.org/licenses/by/4.0)
!!!SMS-siglum: PL-SA
!!!SMS-shelfmark: 398/A VIII
!!!SMS-shelfwork: 001-006 M
!!!SMS-variant:
!!!SMS-altvar:
!!!NIFC-rismSourceID: 1001070172
!!!NIFC-rismChildID: 1001070172
!!!NIFC-islandoraID: none
!!!URL-pdf-islandora:
!!!URL-scan: https://bc.bdsandomierz.pl/dlibra/publication/1511/edition/1479/content @EN{Scan in the Sandomierz Diocese Digital Library} @PL{Skany w portalu Cyfrowa Biblioteka Diecezjalna w Sandomierzu}
!!!IIIF:
!!!ONB-nifc: UWAGA: części Mszy: Kyrie, Gloria, Credo, Sanctus, Benedictus, Agnus
!!!AIN: 1 alto 3 empty 1 organ 1 tenor 2 violn 1 vox
!!!key:
**kern	**fba	**dynam	**kern	**dynam	**kern	**dynam	**kern	**text	**kern	**text	**kern	**text	**kern	**text	**kern	**kern
*part9	*	*	*part8	*	*part7	*	*part6	*	*part5	*	*part4	*	*part3	*	*part2	*part1
*staff9	*	*	*staff8	*	*staff7	*	*staff6	*	*staff5	*	*staff4	*	*staff3	*	*staff2	*staff1
*Iorgan	*	*	*Ivioln	*	*Ivioln	*	*Iempty	*	*Itenor	*	*Ialto	*	*Ivox	*	*Iempty	*Iempty
*I"Organo.	*	*	*I"Violino Secondo.	*	*I"Violino Primo.	*	*I"Baſso.	*	*I"Tenore.	*	*I"Alto.	*	*I"Canto.	*	*I"Clarino 2do. Ex D.	*I"Clarino 1mo.
*I'org	*	*	*I'vl 2	*	*I'vl 1	*	*I'B	*	*I'T	*	*I'A	*	*I'C	*	*I'clno 2	*I'clno 1
*clefF4	*	*	*clefG2	*	*clefG2	*	*clefF4	*	*clefC4	*	*clefC3	*	*clefC1	*	*clefG2	*clefG2
*	*	*	*	*	*	*	*	*	*	*	*	*	*	*	*ITrd-1c-2	*ITrd-1c-2
*k[f#c#]	*	*	*k[f#c#]	*	*k[f#]	*	*k[f#c#]	*	*k[c#f#]	*	*k[f#c#]	*	*k[c#f#]	*	*k[f#c#]	*k[f#c#]
*D:	*	*	*D:	*	*D:	*	*D:	*	*D:	*	*D:	*	*D:	*	*D:	*D:
*M4/4	*	*	*M4/4	*	*M4/4	*	*M4/4	*	*M4/4	*	*M4/4	*	*M4/4	*	*M4/4	*M4/4
*met(c)	*	*	*met(c)	*	*met(c)	*	*met(c)	*	*met(c)	*	*met(c)	*	*met(c)	*	*met(c)	*met(c)
=1	=1	=1	=1	=1	=1	=1	=1	=1	=1	=1	=1	=1	=1	=1	=1	=1
!LO:TX:b:t=Agnus	!	!	!LO:TX:b:t=Agnus	!	!LO:TX:b:t=Agnus Dei	!	!	!	!	!	!	!	!	!	!	!
!LO:TX:a:t=Adagio Solo	!	!	!LO:TX:a:t=Adagio	!	!LO:TX:a:t=Adagio	!	!	!	!	!	!LO:TX:a:t=So	!	!	!	!LO:TX:a:t=Andnte	!LO:TX:a:t=Andante
!	!	!	!	!LO:DY:b:t=pio	!LO:SIC:t=przy kluczu brak krzyżyka c#:v	!	!	!	!	!	!	!	!	!	!	!LO:TX:a:t=P:problem=użyto Clarino w stroju D
8D\L	.	.	8f#/L	p	8a/L	.	00r	.	00r	.	4a\	A-	00r	.	00r	00r
8D\	.	.	8f#/	.	8a/	.	.	.	.	.	.	.	.	.	.	.
8D\	.	.	8f#/	.	8a/	.	.	.	.	.	(16a\LL	-gnuſ	.	.	.	.
.	.	.	.	.	.	.	.	.	.	.	16f#\JJ)	.	.	.	.	.
8D\J	.	.	8f#/J	.	8a/J	.	.	.	.	.	(16e\LL	.	.	.	.	.
.	.	.	.	.	.	.	.	.	.	.	16d\JJ)	.	.	.	.	.
.	.	.	.	.	.	.	.	.	.	.	16qqe/	.	.	.	.	.
8E\L	7	.	8e/L	.	8g/L	.	.	.	.	.	16B\LL	De-	.	.	.	.
.	.	.	.	.	.	.	.	.	.	.	16A\JJ	.	.	.	.	.
8E\	6	.	8e/	.	8g/	.	.	.	.	.	8c#/	-i	.	.	.	.
8E\	.	.	8c#/	.	8g/	.	.	.	.	.	8r	.	.	.	.	.
8E\J	.	.	8c#/J	.	8g/J	.	.	.	.	.	8A/	qvi	.	.	.	.
=2	=2	=2	=2	=2	=2	=2	=2	=2	=2	=2	=2	=2	=2	=2	=2	=2
*	*	*	*^	*	*	*	*	*	*	*	*	*	*	*	*	*
8r	.	.	4e/	4A/	.	4g/	.	.	.	.	.	(4g\	tol-	.	.	.	.
8C#/L	5	.	.	.	.	.	.	.	.	.	.	.	.	.	.	.	.
*	*	*	*Xtuplet	*	*	*Xtuplet	*	*	*	*	*	*Xtuplet	*	*	*	*	*
!	!	!	!LO:TUP:b:problem=klamry łukowe w całym takcie	!	!	!LO:TUP:b:problem=klamra łukowa	!	!	!	!	!	!LO:TUP:a:problem=klamra łukowa	!	!	!	!	!
8C#/	.	.	24e/LL	4ryy	.	24g/LL	.	.	.	.	.	24g\LL)	.	.	.	.	.
.	.	.	24d/	.	.	24f#/	.	.	.	.	.	24f#\	.	.	.	.	.
.	.	.	24c#/JJ	.	.	24e/JJ	.	.	.	.	.	24e\JJ	.	.	.	.	.
!	!	!	!	!	!	!LO:TUP:b:problem=klamra łukowa	!	!	!	!	!	!LO:TUP:a:problem=klamra łukowa	!	!	!	!	!
8C#/J	.	.	24g/LL	.	.	24b/LL	.	.	.	.	.	24b\LL	.	.	.	.	.
.	.	.	24f#/	.	.	24a/	.	.	.	.	.	24a\	.	.	.	.	.
.	.	.	24e/JJ	.	.	24g/JJ	.	.	.	.	.	24g\JJ	.	.	.	.	.
8r	.	.	8d/L	2ryy	.	8f#/L	.	.	.	.	.	8f#`\	-liſ	.	.	.	.
8D\L	.	.	8d/J	.	.	[8f#/J	.	.	.	.	.	8f#`\	pec-	.	.	.	.
!	!	!	!	!	!	!	!	!	!	!	!	!LO:LB:g=original	!	!	!	!	!
!	!	!	!	!	!	!	!	!	!	!	!	!LO:TUP:a:problem=klamra łukowa	!	!	!	!	!
8D\	.	.	24d/LL	.	.	24f#/LL]	.	.	.	.	.	24f#\LL	-ca-	.	.	.	.
.	.	.	24e/	.	.	24e/	.	.	.	.	.	24e\	.	.	.	.	.
.	.	.	24f#/JJ	.	.	24d/JJ	.	.	.	.	.	24d\JJ	.	.	.	.	.
!	!	!	!	!	!	!LO:TUP:b:problem=klamra łukowa	!	!	!	!	!	!LO:TUP:a:problem=klamra łukowa	!	!	!	!	!
8D\J	.	.	24f#/LL	.	.	24a/LL	.	.	.	.	.	24a\LL	.	.	.	.	.
.	.	.	24e/	.	.	24g/	.	.	.	.	.	24g\	.	.	.	.	.
.	.	.	24d/JJ	.	.	24f#/JJ	.	.	.	.	.	24f#\JJ	.	.	.	.	.
*	*	*	*v	*v	*	*	*	*	*	*	*	*	*	*	*	*	*
=3	=3	=3	=3	=3	=3	=3	=3	=3	=3	=3	=3	=3	=3	=3	=3	=3
8GG/L	.	.	8B/L	.	16e/LL	.	.	.	.	.	8e\L	.	.	.	.	.
.	.	.	.	.	16g/	.	.	.	.	.	.	.	.	.	.	.
8GG/	.	.	16.g/L	.	16.b/	.	.	.	.	.	16b\L	.	.	.	.	.
.	.	.	.	.	.	.	.	.	.	.	16a\JJ	.	.	.	.	.
.	.	.	32f#/JJk	.	32a/JJk	.	.	.	.	.	.	.	.	.	.	.
.	.	.	8qqf#/	.	8qqa/	.	.	.	.	.	8qqa/	.	.	.	.	.
8GG/	.	.	8.e/L	.	8.g/L	.	.	.	.	.	8.g\	.	.	.	.	.
8GG/J	.	.	.	.	.	.	.	.	.	.	.	.	.	.	.	.
.	.	.	16d/Jk	.	16f#/Jk	.	.	.	.	.	16f#\	-ta	.	.	.	.
.	.	.	8qqd/	.	8qqg/	.	.	.	.	.	8qqg/	.	.	.	.	.
8AA/L	6 4	.	8d/L	.	8f#/L	.	.	.	.	.	8f#\	mun-	.	.	.	.
16.AA/L	5 3	.	16.c#/L	.	16.e/L	.	.	.	.	.	8e\	-di	.	.	.	.
32AA/JJk	.	.	32c#/JJk	.	32e/JJk	.	.	.	.	.	.	.	.	.	.	.
4AA/	.	.	4c#/	.	4e/	.	.	.	.	.	4r	.	.	.	.	.
=4	=4	=4	=4	=4	=4	=4	=4	=4	=4	=4	=4	=4	=4	=4	=4	=4
8AA/L	.	.	4c#/	.	4e/	.	.	.	.	.	4e\	mi-	.	.	.	.
8AA/	.	.	.	.	.	.	.	.	.	.	.	.	.	.	.	.
8AA/	.	.	(32e/KLL	.	(32g/KLL	.	.	.	.	.	(32g\KLL	.	.	.	.	.
!	!	!	!	!	!	!	!	!	!	!	!LO:TX:a:t=P:problem=kropka po lewej stronie	!	!	!	!	!
.	.	.	16.d/)	.	16.f#/)	.	.	.	.	.	16.f#\JJ)	.	.	.	.	.
8AA/J	.	.	(32f#/K	.	(32a/K	.	.	.	.	.	(32a\KLL	-se-	.	.	.	.
.	.	.	16.e/JJ)	.	16.g/JJ)	.	.	.	.	.	16.g\JJ)	.	.	.	.	.
!	!	!	!	!	!LO:LB:g=original	!	!	!	!	!	!	!	!	!	!	!
4D\	.	.	(32d/KLL	.	(32f#/KLL	.	.	.	.	.	(16f#\LL	-re-	.	.	.	.
.	.	.	16.c#/)	.	16.e/)	.	.	.	.	.	.	.	.	.	.	.
.	.	.	.	.	.	.	.	.	.	.	16e\JJ)	.	.	.	.	.
.	.	.	(32e/K	.	(32g/K	.	.	.	.	.	8f#\	-re	.	.	.	.
.	.	.	16.d/JJ)	.	16.f#/JJ)	.	.	.	.	.	.	.	.	.	.	.
!	!	!	!LO:LB:g=original	!	!	!	!	!	!	!	!	!	!	!	!	!
4r	.	.	(16f#/LL	.	(16a/LL	.	.	.	.	.	4r	.	.	.	.	.
.	.	.	16e/)	.	16g/)	.	.	.	.	.	.	.	.	.	.	.
.	.	.	8qqf#/	.	8qqa/	.	.	.	.	.	.	.	.	.	.	.
.	.	.	(16e/	.	(16g/	.	.	.	.	.	.	.	.	.	.	.
.	.	.	16d/JJ)	.	16f#/JJ)	.	.	.	.	.	.	.	.	.	.	.
=5	=5	=5	=5	=5	=5	=5	=5	=5	=5	=5	=5	=5	=5	=5	=5	=5
8BB/L	#	.	4d#X/	.	4f#/	.	00r	.	00r	.	4f#\	mi-	00r	.	00r	00r
8BB/	.	.	.	.	.	.	.	.	.	.	.	.	.	.	.	.
8BB/	.	.	(16f#/LL	.	(32a/KLL	.	.	.	.	.	(32a\KLL	.	.	.	.	.
.	.	.	.	.	16.g#X/)	.	.	.	.	.	16.g#X\JJ)	.	.	.	.	.
.	.	.	16e/)	.	.	.	.	.	.	.	.	.	.	.	.	.
8BB/J	.	.	(16g#X/	.	(32b/K	.	.	.	.	.	(32b\KLL	-se-	.	.	.	.
.	.	.	.	.	16.a/JJ)	.	.	.	.	.	16.a\JJ)	.	.	.	.	.
.	.	.	16f#/JJ)	.	.	.	.	.	.	.	.	.	.	.	.	.
.	.	.	.	.	.	.	.	.	.	.	16qqa/	.	.	.	.	.
4E\	.	.	32e/KLL	.	(32g#X/KLL	.	.	.	.	.	16g#X\LL	-re-	.	.	.	.
.	.	.	16.d#X/	.	16.f#/)	.	.	.	.	.	.	.	.	.	.	.
.	.	.	.	.	.	.	.	.	.	.	16f#\JJ	.	.	.	.	.
.	.	.	32f#/K	.	(32a/K	.	.	.	.	.	8g#\	-re	.	.	.	.
.	.	.	16.e/JJ	.	16.g#/JJ)	.	.	.	.	.	.	.	.	.	.	.
4r	.	.	16g#X/LL	.	(16b/LL	.	.	.	.	.	4r	.	.	.	.	.
.	.	.	(16f#/	.	16a/)	.	.	.	.	.	.	.	.	.	.	.
.	.	.	.	.	8qqb/	.	.	.	.	.	.	.	.	.	.	.
.	.	.	16f#/	.	(16a/	.	.	.	.	.	.	.	.	.	.	.
.	.	.	16e/JJ)	.	16g#X/JJ)	.	.	.	.	.	.	.	.	.	.	.
!LO:LB:g=original	!	!	!	!	!	!	!	!	!	!	!	!	!	!	!	!
=6	=6	=6	=6	=6	=6	=6	=6	=6	=6	=6	=6	=6	=6	=6	=6	=6
16r	.	.	16r	.	16r	.	.	.	.	.	4a\	mi-	.	.	.	.
16cn\LL	6	.	(16e'/LL	.	(16a'/LL	.	.	.	.	.	.	.	.	.	.	.
16c\	.	.	16e'/	.	16a'/	.	.	.	.	.	.	.	.	.	.	.
16c\JJ	.	.	16e'/JJ)	.	16a'/JJ)	.	.	.	.	.	.	.	.	.	.	.
16A\LL	n	.	(16e'/LL	.	(16a'/LL	.	.	.	.	.	4a\	-se-	.	.	.	.
16A\	.	.	16e'/	.	16a'/	.	.	.	.	.	.	.	.	.	.	.
16A\	.	.	16e'/	.	16a'/	.	.	.	.	.	.	.	.	.	.	.
16A\JJ	.	.	16e'/JJ)	.	16a'/JJ)	.	.	.	.	.	.	.	.	.	.	.
16r	.	.	16r	.	16r	.	.	.	.	.	4.ccn\	-re-	.	.	.	.
!LO:TX:a:t=P:problem=w źródle dodatkowa szesnastka 16F	!	!	!	!	!	!	!	!	!	!	!	!	!	!	!	!
16Fn\LL	.	.	(16a'/LL	.	(16ccn'\LL	.	.	.	.	.	.	.	.	.	.	.
16F\	.	.	16a'/	.	16cc'\	.	.	.	.	.	.	.	.	.	.	.
16F\JJ	.	.	16a'/JJ)	.	16cc'\JJ)	.	.	.	.	.	.	.	.	.	.	.
16D#X\LL	n7	.	(16a'/LL	.	(16cc'\LL	.	.	.	.	.	.	.	.	.	.	.
16D#\	.	.	16a'/	.	16cc'\	.	.	.	.	.	.	.	.	.	.	.
16D#\	.	.	16a'/	.	16cc'\	.	.	.	.	.	16b\LL	.	.	.	.	.
16D#\JJ	.	.	16a'/JJ)	.	16cc'\JJ)	.	.	.	.	.	16a\JJ	.	.	.	.	.
=7	=7	=7	=7	=7	=7	=7	=7	=7	=7	=7	=7	=7	=7	=7	=7	=7
16Dn\LL	#4| 2	.	16r	.	16r	.	.	.	.	.	4g#X\	.	.	.	.	.
16D\	.	.	16g#X/LL	.	(16b\LL	.	.	.	.	.	.	.	.	.	.	.
16D\	.	.	16g#/	.	16b\	.	.	.	.	.	.	.	.	.	.	.
16D\JJ	.	.	16g#/JJ	.	16b\JJ)	.	.	.	.	.	.	.	.	.	.	.
8C#\L	6	.	8a/L	.	(16cc#X\LL	.	.	.	.	.	16a\LL	.	.	.	.	.
.	.	.	.	.	16ee\)	.	.	.	.	.	16e\JJ	.	.	.	.	.
8D\J	.	.	8a/J	.	(16f#\	.	.	.	.	.	16f#\LL	-re	.	.	.	.
.	.	.	.	.	16dd\JJ)	.	.	.	.	.	16dd\JJ	.	.	.	.	.
!	!	!	!	!	!LO:LB:g=original	!	!	!	!	!	!	!	!	!	!	!
!LO:TX:a:t=P:problem=mixed beam	!	!	!	!	!	!	!	!	!	!	!	!	!	!	!	!
8E\L	6 4	.	8a/L	.	8cc#\L	.	.	.	.	.	24cc#X\LL	no-	.	.	.	.
.	.	.	.	.	.	.	.	.	.	.	24ee\	.	.	.	.	.
.	.	.	.	.	.	.	.	.	.	.	24dd\JJ	.	.	.	.	.
8E\	.	.	8a/	.	8cc#\	.	.	.	.	.	24cc#\LL	.	.	.	.	.
.	.	.	.	.	.	.	.	.	.	.	24b\	.	.	.	.	.
.	.	.	.	.	.	.	.	.	.	.	24a\JJ	.	.	.	.	.
.	.	.	.	.	.	.	.	.	.	.	8qqa/	.	.	.	.	.
8EE/	5 #	.	8g#X/	.	8b\	.	.	.	.	.	4b\	.	.	.	.	.
8EE/J	.	.	8g#/J	.	8b\J	.	.	.	.	.	.	.	.	.	.	.
!	!	!	!LO:LB:g=original	!	!	!	!	!	!	!	!LO:LB:g=original	!	!	!	!	!
=8	=8	=8	=8	=8	=8	=8	=8	=8	=8	=8	=8	=8	=8	=8	=8	=8
!	!	!	!	!LO:DY:b:t=for	!	!LO:DY:b:t=for	!	!	!	!	!	!	!	!	!	!
4AA/	.	.	8a\L	f	8a\L	f	.	.	.	.	4a\	-biſ	.	.	.	.
.	.	.	8cc#\J	.	8ee\J	.	.	.	.	.	.	.	.	.	.	.
!	!	!	!LO:TUP:a:problem=klamry łukowe w całym takcie	!	!LO:TUP:a:problem=klamra łukowa, t. 8 i 9	!	!	!	!	!	!	!	!	!	!	!
8r	.	.	24cc#\LL	.	24ee\LL	.	.	.	.	.	4re	.	.	.	.	.
.	.	.	24b\	.	24dd\	.	.	.	.	.	.	.	.	.	.	.
!	!	!	!	!	!LO:SIC:s=24cc#\JJ:v	!	!	!	!	!	!	!	!	!	!	!
.	.	.	24a\JJ	.	24cc\JJ	.	.	.	.	.	.	.	.	.	.	.
8AA#X/	5	.	24ee\LL	.	24ggn\LL	.	.	.	.	.	.	.	.	.	.	.
.	.	.	24dd\	.	24ff#\	.	.	.	.	.	.	.	.	.	.	.
.	.	.	24cc#\JJ	.	24ee\JJ	.	.	.	.	.	.	.	.	.	.	.
4BB/	.	.	8b\L	.	8dd\L|	.	.	.	.	.	2r	.	.	.	.	.
.	.	.	8b\J	.	[8dd\J	.	.	.	.	.	.	.	.	.	.	.
8r	.	.	24b\LL	.	24dd\LL]	.	.	.	.	.	.	.	.	.	.	.
!	!	!	!	!	!LO:SIC:s=24cc#\:v	!	!	!	!	!	!	!	!	!	!	!
.	.	.	24a\	.	24cc\	.	.	.	.	.	.	.	.	.	.	.
.	.	.	24g#X\JJ	.	24b\JJ	.	.	.	.	.	.	.	.	.	.	.
8GG#X/	.	.	24dd\LL	.	24ff#\LL	.	.	.	.	.	.	.	.	.	.	.
.	.	.	24cc#\	.	24ee\	.	.	.	.	.	.	.	.	.	.	.
.	.	.	24b\JJ	.	24dd\JJ	.	.	.	.	.	.	.	.	.	.	.
=9	=9	=9	=9	=9	=9	=9	=9	=9	=9	=9	=9	=9	=9	=9	=9	=9
!	!	!	!	!	!LO:SIC:s=8cc#\L:v	!	!	!	!	!	!	!	!	!	!	!
8AA/L	.	.	8a\L	.	8cc\L	.	00r	.	00r	.	00r	.	0r	.	00r	00r
8C#/	6	.	8ee\J	.	8ee\J	.	.	.	.	.	.	.	.	.	.	.
8D/	.	.	(32gg\KLL	.	(32gg\KLL	.	.	.	.	.	.	.	.	.	.	.
.	.	.	16.ff#\)	.	16.ff#\	.	.	.	.	.	.	.	.	.	.	.
8D/J	.	.	(32aa\K	.	(32aa\K)	.	.	.	.	.	.	.	.	.	.	.
.	.	.	16.gg#X\JJ)	.	16.gg#X\JJ)	.	.	.	.	.	.	.	.	.	.	.
4C#/	6	.	24aa\LL	.	24aa\LL	.	.	.	.	.	.	.	.	.	.	.
!	!	!	!	!	!LO:SIC:s=24ccc#\:v	!	!	!	!	!	!	!	!	!	!	!
.	.	.	24ccc#\	.	24ccc\	.	.	.	.	.	.	.	.	.	.	.
.	.	.	24bb\JJ	.	24bb\JJ	.	.	.	.	.	.	.	.	.	.	.
!	!	!	!LO:TUP:a:problem=klamry łukowe do końca taktu	!	!	!	!	!	!	!	!	!	!	!	!	!
.	.	.	24aa\LL	.	24aa\LL	.	.	.	.	.	.	.	.	.	.	.
.	.	.	24gg#X\	.	24gg#X\	.	.	.	.	.	.	.	.	.	.	.
.	.	.	24ff#\JJ	.	24ff#\JJ	.	.	.	.	.	.	.	.	.	.	.
8r	.	.	24ee\LL	.	24ee\LL	.	.	.	.	.	.	.	.	.	.	.
.	.	.	24dd\	.	24dd\	.	.	.	.	.	.	.	.	.	.	.
!	!	!	!	!	!LO:SIC:s=24cc#\JJ:v	!	!	!	!	!	!	!	!	!	!	!
.	.	.	24cc#\JJ	.	24cc\JJ	.	.	.	.	.	.	.	.	.	.	.
8D\	.	.	24ff#\LL	.	24ff#\LL	.	.	.	.	.	.	.	.	.	.	.
.	.	.	24dd\	.	24dd\	.	.	.	.	.	.	.	.	.	.	.
.	.	.	24b\JJ	.	24b\JJ	.	.	.	.	.	.	.	.	.	.	.
=10	=10	=10	=10	=10	=10	=10	=10	=10	=10	=10	=10	=10	=10	=10	=10	=10
!LO:TX:a:t=P:problem=mixed beam	!	!	!	!	!	!	!	!	!	!	!	!	!	!	!	!
8E\L	6 4	.	8.a/L	.	8.a/L	.	.	.	.	.	.	.	.	.	.	.
8E\	.	.	.	.	.	.	.	.	.	.	.	.	.	.	.	.
.	.	.	16e/Jk	.	16e/Jk	.	.	.	.	.	.	.	.	.	.	.
.	.	.	8qqa/	.	8qqa/	.	.	.	.	.	.	.	.	.	.	.
!	!	!	!	!	!LO:SIC:t=tryl na dźwiękach b i cc# (problem przez brak krzyżyka c# przy kluczu):v	!	!	!	!	!	!	!	!	!	!	!
8EE/	5 #	.	4bT/	.	4bt/	.	.	.	.	.	.	.	.	.	.	.
8EE/J	.	.	.	.	.	.	.	.	.	.	.	.	.	.	.	.
8AA\L	.	.	8a/L	.	8a/L	.	.	.	.	.	.	.	.	.	.	.
8E\J	.	.	8e/J	.	8e/J	.	.	.	.	.	.	.	.	.	.	.
4A\	.	.	4A/	.	4A/	.	.	.	.	.	.	.	.	.	.	.
!LO:LB:g=original	!	!	!	!	!LO:LB:g=original	!	!	!	!	!	!	!	!	!	!	!
=11	=11	=11	=11	=11	=11	=11	=11	=11	=11	=11	=11	=11	=11	=11	=11	=11
*	*	*	*^	*	*	*	*	*	*	*	*	*	*	*	*	*
!	!	!	!	!	!LO:DY:b:t=po	!	!LO:DY:b:t=pio	!	!	!	!	!	!	!	!	!	!
8A\L	.	.	8cc#\L	2ryy	p	8ee\L	p	.	.	.	.	.	.	4ee\	A-	.	.
!	!	!LO:DY:b:t=p&colon;	!	!	!	!	!	!	!	!	!	!	!	!	!	!	!
8A\	.	p	8cc#\	.	.	8ee\	.	.	.	.	.	.	.	.	.	.	.
8A\	.	.	8cc#\	.	.	8ee\	.	.	.	.	.	.	.	(16ee\LL	-gnuſ	.	.
.	.	.	.	.	.	.	.	.	.	.	.	.	.	16cc#\JJ)	.	.	.
8A\J	.	.	8cc#\J	.	.	8ee\J	.	.	.	.	.	.	.	(16b\LL	.	.	.
.	.	.	.	.	.	.	.	.	.	.	.	.	.	16a\JJ)	.	.	.
.	.	.	.	.	.	.	.	.	.	.	.	.	.	8qqb/	.	.	.
!	!	!	!LO:LB:g=original	!LO:LB:g=original	!	!	!	!	!	!	!	!	!	!	!	!	!
8B\L	7	.	8b/L	8re	.	8dd\L	.	.	.	.	.	.	.	16a\LL	De-	.	.
.	.	.	.	.	.	.	.	.	.	.	.	.	.	16g#X\JJ	.	.	.
8B\	#6\	.	8b/	8g#X\L	.	8dd\	.	.	.	.	.	.	.	8g#\	-i	.	.
8B\	.	.	8b/	8g#\	.	8dd\	.	.	.	.	.	.	.	8r	.	.	.
8B\J	.	.	8b/J	8g#\J	.	8dd\J	.	.	.	.	.	.	.	8e/	qvi	.	.
*	*	*	*v	*v	*	*	*	*	*	*	*	*	*	*	*	*	*
=12	=12	=12	=12	=12	=12	=12	=12	=12	=12	=12	=12	=12	=12	=12	=12	=12
8r	.	.	8rg	.	8r	.	.	.	.	.	.	.	4dd\	tol-	.	.
8G#X\L	5	.	8b/	.	8dd\	.	.	.	.	.	.	.	.	.	.	.
*	*	*	*	*	*	*	*	*	*	*	*	*	*Xtuplet	*	*	*
!	!	!	!LO:TUP:b:problem=klamra łukowa	!	!LO:TUP:a:klamry łukowe w całym takcie	!	!	!	!	!	!	!	!LO:TUP:a:problem=klamra łukowa	!	!	!
8G#\	.	.	24b/LL	.	24dd\LL	.	.	.	.	.	.	.	24dd\LL	.	.	.
!	!	!	!	!	!LO:SIC:s=24cc#\:v	!	!	!	!	!	!	!	!	!	!	!
.	.	.	24a/	.	24cc\	.	.	.	.	.	.	.	24cc#\	.	.	.
.	.	.	24g#X/JJ	.	24b\JJ	.	.	.	.	.	.	.	24b\JJ	.	.	.
!	!	!	!LO:TUP:a:klamry łukowe do końca taktu	!	!	!	!	!	!	!	!	!	!LO:TUP:a:problem=klamra łukowa	!	!	!
8G#\J	.	.	24dd\LL	.	24ff#\LL	.	.	.	.	.	.	.	24ff#\LL	.	.	.
.	.	.	24cc#\	.	24ee\	.	.	.	.	.	.	.	24ee\	.	.	.
.	.	.	24b\JJ	.	24dd\JJ	.	.	.	.	.	.	.	24dd\JJ	.	.	.
8r	.	.	8r	.	8r	.	.	.	.	.	.	.	8cc#\	-liſ	.	.
!	!	!	!	!	!LO:SIC:s=8cc#\:v	!	!	!	!	!	!	!	!	!	!	!
8A\L	.	.	8a\	.	8cc\	.	.	.	.	.	.	.	8cc#\	pec-	.	.
!	!	!	!	!	!LO:SIC:s=24cc#\LL:v	!	!	!	!	!	!	!	!	!	!	!
8A\	.	.	24a\LL	.	24cc\LL	.	.	.	.	.	.	.	24cc#\LL	-ca-	.	.
.	.	.	24b\	.	24b\	.	.	.	.	.	.	.	24b\	.	.	.
.	.	.	24cc#\JJ	.	24a\JJ	.	.	.	.	.	.	.	24a\JJ	.	.	.
8A\J	.	.	24cc#\LL	.	24ee\LL	.	.	.	.	.	.	.	24ee\LL	.	.	.
.	.	.	24b\	.	24dd\	.	.	.	.	.	.	.	24dd\	.	.	.
!	!	!	!	!	!LO:SIC:s=24cc#\JJ:v	!	!	!	!	!	!	!	!	!	!	!
.	.	.	24a\JJ	.	24cc\JJ	.	.	.	.	.	.	.	24cc#\JJ	.	.	.
!	!	!	!	!	!	!	!	!	!	!	!	!	!LO:LB:g=original	!	!	!
=13	=13	=13	=13	=13	=13	=13	=13	=13	=13	=13	=13	=13	=13	=13	=13	=13
8D\L	6	.	8f#\L	.	16b\LL	.	00r	.	00r	.	00r	.	16b\LL	.	00r	00r
.	.	.	.	.	(16dd\	.	.	.	.	.	.	.	16dd\	.	.	.
8D\	.	.	16dd\L	.	16ff#\	.	.	.	.	.	.	.	16ff#\	.	.	.
.	.	.	16cc#\JJ	.	16ee\JJ)	.	.	.	.	.	.	.	16ee\JJ	.	.	.
.	.	.	8qqcc#/	.	8qqee/	.	.	.	.	.	.	.	8qqee/	.	.	.
8D\	.	.	8.b\L	.	8.dd\L	.	.	.	.	.	.	.	8.dd\	.	.	.
8D\J	.	.	.	.	.	.	.	.	.	.	.	.	.	.	.	.
!	!	!	!	!	!LO:SIC:s=16cc#\Jk:v	!	!	!	!	!	!	!	!	!	!	!
.	.	.	16a\Jk	.	16cc\Jk	.	.	.	.	.	.	.	16cc#\	-ta	.	.
.	.	.	.	.	8qqdd/	.	.	.	.	.	.	.	8qqdd/	.	.	.
!	!	!	!	!	!LO:SIC:s=8cc#\L:v	!	!	!	!	!	!	!	!	!	!	!
8E\L	6 4	.	8a/L	.	8cc\L	.	.	.	.	.	.	.	8cc#\	mun-	.	.
16.E\L	5 #	.	16.g#X/L	.	16.b\L	.	.	.	.	.	.	.	8b\	-di	.	.
32E\JJk	.	.	32g#/JJk	.	32b\JJk	.	.	.	.	.	.	.	.	.	.	.
4E\	.	.	4g#/	.	4b\	.	.	.	.	.	.	.	4r	.	.	.
=14	=14	=14	=14	=14	=14	=14	=14	=14	=14	=14	=14	=14	=14	=14	=14	=14
8E\L	#	.	4g#X/	.	4b\	.	.	.	.	.	.	.	4b\	mi-	.	.
8E\	.	.	.	.	.	.	.	.	.	.	.	.	.	.	.	.
8E\	.	.	(32b/KLL	.	(32dd\KLL	.	.	.	.	.	.	.	(32dd\KLL	-se-	.	.
!	!	!	!	!	!LO:SIC:s=16.cc#\):v	!	!	!	!	!	!	!	!	!	!	!
.	.	.	16.a/)	.	16.cc\)	.	.	.	.	.	.	.	16.cc#\JJ)	.	.	.
8E\J	.	.	(32cc#/K	.	(32ee\K	.	.	.	.	.	.	.	(32ee\KLL	.	.	.
.	.	.	16.b/JJ)	.	16.dd\JJ)	.	.	.	.	.	.	.	16.dd\JJ)	.	.	.
.	.	.	.	.	.	.	.	.	.	.	.	.	8qqdd/	.	.	.
!	!	!	!	!	!LO:SIC:s=(32cc#\KLL:v	!	!	!	!	!	!	!	!	!	!	!
4A\	.	.	(32a/KLL	.	(32cc\KLL	.	.	.	.	.	.	.	(16cc#\LL	-re-	.	.
.	.	.	16.g#X/)	.	16.b\)	.	.	.	.	.	.	.	.	.	.	.
.	.	.	.	.	.	.	.	.	.	.	.	.	16b\JJ)	.	.	.
.	.	.	(32b/K	.	(32dd\K	.	.	.	.	.	.	.	8cc#\	-re	.	.
!	!	!	!	!	!LO:SIC:s=16.cc#\JJ):v	!	!	!	!	!	!	!	!	!	!	!
.	.	.	16.a/JJ)	.	16.cc\JJ)	.	.	.	.	.	.	.	.	.	.	.
!	!	!	!	!	!LO:LB:g=original	!	!	!	!	!	!	!	!	!	!	!
4r	.	.	(32cc#/KLL	.	(16ee\LL	.	.	.	.	.	.	.	4r	.	.	.
.	.	.	16.b/)	.	.	.	.	.	.	.	.	.	.	.	.	.
.	.	.	.	.	16dd\)	.	.	.	.	.	.	.	.	.	.	.
.	.	.	.	.	8qqee/	.	.	.	.	.	.	.	.	.	.	.
.	.	.	(32b/K	.	(16dd\	.	.	.	.	.	.	.	.	.	.	.
.	.	.	16.a/JJ)	.	.	.	.	.	.	.	.	.	.	.	.	.
!	!	!	!	!	!LO:SIC:s=16cc#\JJ):v	!	!	!	!	!	!	!	!	!	!	!
.	.	.	.	.	16cc\JJ)	.	.	.	.	.	.	.	.	.	.	.
!	!	!	!LO:LB:g=original	!	!	!	!	!	!	!	!	!	!	!	!	!
=15	=15	=15	=15	=15	=15	=15	=15	=15	=15	=15	=15	=15	=15	=15	=15	=15
8AA/L	.	.	4cc#\	.	4ee\	.	.	.	.	.	.	.	4ee\	mi-	.	.
8AA/	.	.	.	.	.	.	.	.	.	.	.	.	.	.	.	.
8AA/	.	.	(32ee\KLL	.	(32ggn\KLL	.	.	.	.	.	.	.	(32ggn\KLL	-se-	.	.
.	.	.	16.dd\)	.	16.ff#\)	.	.	.	.	.	.	.	16.ff#\JJ)	.	.	.
8AA/J	.	.	(32ff#\K	.	(32aa\K	.	.	.	.	.	.	.	(32aa\KLL	.	.	.
.	.	.	16.ee\JJ)	.	16.gg\JJ)	.	.	.	.	.	.	.	16.gg\JJ)	.	.	.
.	.	.	.	.	8qqgg/	.	.	.	.	.	.	.	.	.	.	.
8D\L	.	.	8dd\L	.	8ff#\L	.	.	.	.	.	.	.	8ff#\L	-re-	.	.
8E\	.	.	32cc#\KL	.	(32ee\KL	.	.	.	.	.	.	.	32ee\KL	.	.	.
.	.	.	16.b\JJ	.	16.dd\JJ)	.	.	.	.	.	.	.	16.dd\JJ	.	.	.
!	!	!	!	!	!LO:SIC:s=(32cc#\KLL:v	!	!	!	!	!	!	!	!	!	!	!
8F#\	.	.	32a/KLL	.	(32cc\KLL	.	.	.	.	.	.	.	(32cc#\KLL	.	.	.
.	.	.	16.g/	.	16.b\)	.	.	.	.	.	.	.	16.b\JJ)	.	.	.
!	!	!	!	!	!	!	!	!	!	!	!	!	!LO:LB:g=original	!	!	!
8G\J	.	.	32f#/K	.	(32a\K	.	.	.	.	.	.	.	(32a\KLL	-re	.	.
.	.	.	16.e/JJ	.	16.g\JJ)	.	.	.	.	.	.	.	16.g\JJ)	.	.	.
=16	=16	=16	=16	=16	=16	=16	=16	=16	=16	=16	=16	=16	=16	=16	=16	=16
!LO:TX:a:t=P:problem=mixed beam	!	!	!	!	!	!	!	!	!	!	!	!	!	!	!	!
8A\L	6 4	.	4d/	.	4f#t/	.	.	.	.	.	.	.	(4f#/	no-	.	.
8A\	.	.	.	.	.	.	.	.	.	.	.	.	.	.	.	.
!LO:TX:a:t=P:problem=nad nutą słabo widoczne oznaczenie b.c. "5 ⟨.⟩", być może specjalnie wymazane	!	!	!	!	!	!	!	!	!	!	!	!	!	!	!	!
8AA/	.	.	4c#t/	.	4e/	.	.	.	.	.	.	.	4e/)	.	.	.
8AA/J	.	.	.	.	.	.	.	.	.	.	.	.	.	.	.	.
!	!	!	!	!LO:DY:b:t=for	!	!	!	!	!	!	!	!	!	!	!	!
4D\	.	.	8d/L	f	8d/L	.	.	.	.	.	.	.	4d/	-biſ	.	.
!	!	!	!	!	!	!LO:DY:b:t=for	!	!	!	!	!	!	!	!	!	!
.	.	.	8f#/J	.	8a/J	f	.	.	.	.	.	.	.	.	.	.
!	!	!	!LO:TUP:b:problem=klamry łukowe w t. 16 i 17	!	!LO:TUP:b:problem=klamry łukowe w t. 16 i 17	!	!	!	!	!	!	!	!	!	!	!
8r	.	.	24f#/LL	.	24a/LL	.	.	.	.	.	.	.	4r	.	.	.
.	.	.	24e/	.	24g/	.	.	.	.	.	.	.	.	.	.	.
.	.	.	24d/JJ	.	24f#/JJ	.	.	.	.	.	.	.	.	.	.	.
8D#X\	.	.	24a/LL	.	24ccn/LL	.	.	.	.	.	.	.	.	.	.	.
.	.	.	24g/	.	24b/	.	.	.	.	.	.	.	.	.	.	.
.	.	.	24f#/JJ	.	24a/JJ	.	.	.	.	.	.	.	.	.	.	.
!LO:LB:g=original	!	!	!	!	!	!	!	!	!	!	!	!	!	!	!	!
=17	=17	=17	=17	=17	=17	=17	=17	=17	=17	=17	=17	=17	=17	=17	=17	=17
4E\	.	.	8e/L	.	8g/L	.	0r	.	0r	.	0r	.	0r	.	0r	0r
.	.	.	8e/J	.	8g/J	.	.	.	.	.	.	.	.	.	.	.
8r	.	.	24e/LL	.	24g/LL	.	.	.	.	.	.	.	.	.	.	.
.	.	.	24d/	.	24f#/	.	.	.	.	.	.	.	.	.	.	.
.	.	.	24c#/JJ	.	24e/JJ	.	.	.	.	.	.	.	.	.	.	.
8C#\	.	.	24g/LL	.	24b/LL	.	.	.	.	.	.	.	.	.	.	.
.	.	.	24f#/	.	24a/	.	.	.	.	.	.	.	.	.	.	.
.	.	.	24e/JJ	.	24g/JJ	.	.	.	.	.	.	.	.	.	.	.
8Dn\L	.	.	8d/L	.	8f#/L	.	.	.	.	.	.	.	.	.	.	.
8F#\	6	.	8a/J	.	8a/J	.	.	.	.	.	.	.	.	.	.	.
8G\	3	.	(32ccn\KLL	.	(32ccn\KLL	.	.	.	.	.	.	.	.	.	.	.
.	.	.	16.b\)	.	16.b\JJ	.	.	.	.	.	.	.	.	.	.	.
8G\J	4	.	(32dd\K	.	(32dd\KLL)	.	.	.	.	.	.	.	.	.	.	.
.	.	.	16.cc#X\JJ)	.	16.cc#X\JJ)	.	.	.	.	.	.	.	.	.	.	.
!	!	!	!	!	!LO:LB:g=original	!	!	!	!	!	!	!	!	!	!	!
=18	=18	=18	=18	=18	=18	=18	=18	=18	=18	=18	=18	=18	=18	=18	=18	=18
!	!	!	!LO:TUP:a:problem=klamry łukowe w tej i następnej grupie 24	!	!	!	!	!	!	!	!	!	!	!	!	!
4F#\	6	.	24dd\LL	.	24dd\LL	.	.	.	.	.	.	.	.	.	.	.
.	.	.	24ff#\	.	24ff#\	.	.	.	.	.	.	.	.	.	.	.
.	.	.	24ee\JJ	.	24ee\JJ	.	.	.	.	.	.	.	.	.	.	.
.	.	.	24dd\LL	.	24dd\LL	.	.	.	.	.	.	.	.	.	.	.
.	.	.	24cc#X\	.	24cc#X\	.	.	.	.	.	.	.	.	.	.	.
.	.	.	24b\JJ	.	24b\JJ	.	.	.	.	.	.	.	.	.	.	.
!	!	!	!LO:TUP:b:problem=klamry łukowe w tej i kolejnej grupie 24	!	!	!	!	!	!	!	!	!	!	!	!	!
8r	.	.	24a/LL	.	24a/LL	.	.	.	.	.	.	.	.	.	.	.
.	.	.	24g/	.	24g/	.	.	.	.	.	.	.	.	.	.	.
.	.	.	24f#/JJ	.	24f#/JJ	.	.	.	.	.	.	.	.	.	.	.
8G\	.	.	24b/LL	.	24b/LL	.	.	.	.	.	.	.	.	.	.	.
.	.	.	24g/	.	24g/	.	.	.	.	.	.	.	.	.	.	.
.	.	.	24e/JJ	.	24e/JJ	.	.	.	.	.	.	.	.	.	.	.
!	!	!	!LO:LB:g=original	!	!	!	!	!	!	!	!	!	!	!	!	!
!LO:TX:a:t=P:problem=mixed beam	!	!	!	!	!	!	!	!	!	!	!	!	!	!	!	!
8A\L	6 4	.	8.d/L	.	8.d/L	.	.	.	.	.	.	.	.	.	.	.
8A\	.	.	.	.	.	.	.	.	.	.	.	.	.	.	.	.
.	.	.	16A/Jk	.	16A/Jk	.	.	.	.	.	.	.	.	.	.	.
.	.	.	.	.	8qqd/	.	.	.	.	.	.	.	.	.	.	.
8AA/	5 3	.	4eT/	.	4eT/	.	.	.	.	.	.	.	.	.	.	.
8AA/J	.	.	.	.	.	.	.	.	.	.	.	.	.	.	.	.
=19	=19	=19	=19	=19	=19	=19	=19	=19	=19	=19	=19	=19	=19	=19	=19	=19
!	!	!	!	!	!LO:TX:a:t=P:problem=mixed beam	!	!LO:TX:a:t=P:problem=caudy w dół  z prawej strony	!	!	!	!	!	!	!	!	!
8D\L	.	.	8d/L	.	8d/L	.	4.D\	A-	4.A/	A-	4.f#\	A-	4.dd\	A-	8r	8r
8D\	.	.	8f#/	.	8aa\J	.	.	.	.	.	.	.	.	.	8ff#\L	8aa\L
8D\	.	.	8f#/	.	(32aa\KLL	.	.	.	.	.	.	.	.	.	8ff#\	8aa\
.	.	.	.	.	16.ff#\	.	.	.	.	.	.	.	.	.	.	.
8D\J	.	.	8f#/J	.	(32ee\K)	.	8D\	-gnus	8A/	-gn(us)	8f#\	-gnuſ	8dd\	-gnus	8ff#\J	8aa\J
.	.	.	.	.	16.dd\JJ)	.	.	.	.	.	.	.	.	.	.	.
.	.	.	.	.	8qqee/	.	.	.	.	.	.	.	.	.	.	.
8E\L	7	.	8g/L	.	8dd\L	.	4E\	De-	4A/	De-	4g\	De-	8.dd\L	De-	8r	8rdd
!	!	!	!	!	!LO:SIC:s=8cc#\J:v	!	!	!	!	!	!	!	!	!	!	!
8E\	6	.	8g/	.	8cc\J	.	.	.	.	.	.	.	.	.	8ee\L	8gg\L
.	.	.	.	.	.	.	.	.	.	.	.	.	16cc#\Jk	.	.	.
8E\	.	.	8g/	.	8r	.	8E\	-i	8A/	-i	8g\	-i	8cc#\	-i	8ee\	8gg\
8E\J	.	.	8g/J	.	8a/	.	8E\	qui	8A/	qui	8g\	qvi	8cc#\	qvi	8ee\J	8gg\J
=20	=20	=20	=20	=20	=20	=20	=20	=20	=20	=20	=20	=20	=20	=20	=20	=20
8C#/L	5	.	4ee\	.	4gg\	.	4C#/	tol-	4A/	tol-	4g\	tol-	4ee\	tol-	8r	8r
8C#/	.	.	.	.	.	.	.	.	.	.	.	.	.	.	8ee\L	8gg\L
!	!	!	!LO:TUP:a:problem=łuki klamrowe w całym takcie	!	!LO:TUP:a:problem=łuki klamrowe w całym takcie	!	!	!	!	!	!	!	!	!	!	!
8C#/	.	.	24ee\LL	.	24gg\LL	.	8C#/	-lis	8A/	-lis	8g\	-liſ	8ee\	-liſ	8ee\	8gg\
.	.	.	24dd\	.	24ff#\	.	.	.	.	.	.	.	.	.	.	.
.	.	.	24cc#\JJ	.	24ee\JJ	.	.	.	.	.	.	.	.	.	.	.
8C#/J	.	.	24gg\LL	.	24bb\LL	.	8C#/	pec-	8A/	pec-	8g\	pec-	8ee\	pec-	8ee\J	8gg\J
.	.	.	24ff#\	.	24aa\	.	.	.	.	.	.	.	.	.	.	.
.	.	.	24ee\JJ	.	24gg\JJ	.	.	.	.	.	.	.	.	.	.	.
8D\L	.	.	8a/L	.	4ff#t\	.	4D/	-ca-	4A/	-ca-	4f#\	-ca-	4dd\	-ca-	8rg	8r
8D\	.	.	8a/J	.	.	.	.	.	.	.	.	.	.	.	8dd\L	8ff#\L
8D\	.	.	16dd\LL	.	24ff#\LL	.	8D/	-ta	8A/	-ta	8f#\	-ta	8dd\	-ta	8dd\	8ff#\
.	.	.	.	.	24ee\	.	.	.	.	.	.	.	.	.	.	.
.	.	.	16a\JJ	.	.	.	.	.	.	.	.	.	.	.	.	.
.	.	.	.	.	24dd\JJ	.	.	.	.	.	.	.	.	.	.	.
8D\J	.	.	24ff#\LL	.	24aa\LL	.	8D/	pec-	8A/	pec-	8a\	pec-	8ff#\	pec-	8dd\J	8ff#\J
.	.	.	24ee\	.	24gg\	.	.	.	.	.	.	.	.	.	.	.
.	.	.	24dd\JJ	.	24ff#\JJ	.	.	.	.	.	.	.	.	.	.	.
=21	=21	=21	=21	=21	=21	=21	=21	=21	=21	=21	=21	=21	=21	=21	=21	=21
8G\L	6	.	16b\LL	.	16ee\LL	.	4.G\	-ca-	4B\	-ca-	4.g\	-ca-	4.ee\	-ca-	8r	8r
.	.	.	16ee\	.	16gg\	.	.	.	.	.	.	.	.	.	.	.
8G\	.	.	16gg\	.	16.bb\	.	.	.	.	.	.	.	.	.	8ee\L	8ee\L
.	.	.	16ff#\JJ	.	.	.	.	.	.	.	.	.	.	.	.	.
.	.	.	.	.	32aa\JJk	.	.	.	.	.	.	.	.	.	.	.
.	.	.	8qqff#/	.	8qqaa/	.	.	.	.	.	.	.	.	.	.	.
8G\	.	.	8.ee\L	.	8.gg\L	.	.	.	4B\	-ta	.	.	.	.	8ee\	8ee\
8G#X\J	.	.	.	.	.	.	8G#X\	-ta	.	.	8f#\	-ta	8dd\	-ta	8dd\J	8ff#\J
.	.	.	16dd\Jk	.	16ff#\Jk	.	.	.	.	.	.	.	.	.	.	.
.	.	.	8qqee/	.	.	.	.	.	.	.	8qqg/	.	.	.	.	.
!	!	!	!	!	!LO:LB:g=original	!	!	!	!LO:LB:g=original	!	!	!	!	!	!	!
!	!	!	!	!	!	!	!LO:TX:a:t=P:problem=caudy w dół z lewej strony	!	!	!	!	!	!	!	!	!
8A\L	6 4	.	8dd\L	.	8.ff#t\L	.	4A\	mun-	4A\	mun-	(8f#\L	mun-	(8dd\L	mun-	8dd\L	8ff#\L
16.A\L	5 3	.	16.cc#\L	.	.	.	.	.	.	.	8e\J)	.	8cc#\J)	.	16a\L	16.ee\L
.	.	.	.	.	32.ee\LL	.	.	.	.	.	.	.	.	.	16a\JJ	.
32A\JJk	.	.	32cc#\JJk	.	.	.	.	.	.	.	.	.	.	.	.	32ee\JJk
.	.	.	.	.	64ee\JJJk	.	.	.	.	.	.	.	.	.	.	.
!LO:TX:a:t=P:problem=mixed beam	!	!	!	!	!	!	!	!	!	!	!	!	!	!	!	!
8A\L	.	.	4cc#t\	.	4ee\	.	4A\	-di	4A\	-di	4e\	-di	4cc#\	-di	4a/	4ee\
8AA/J	.	.	.	.	.	.	.	.	.	.	.	.	.	.	.	.
!LO:LB:g=original	!	!	!	!	!	!	!	!	!	!	!	!	!LO:LB:g=original	!	!LO:LB:g=original	!
=22	=22	=22	=22	=22	=22	=22	=22	=22	=22	=22	=22	=22	=22	=22	=22	=22
!	!	!	!	!	!	!	!	!	!	!	!	!	!	!	!LO:TX:a:t=P:problem=urwany fragment karty źródła, takty 22-23	!
8C#\L	5	.	4ee\	.	[4gg\	.	4C#/	mi-	4.A\	mi-	4.g\	mi-	4.ee\	mi-	1ryy	8r
8C#\	.	.	.	.	.	.	.	.	.	.	.	.	.	.	.	8gg\L
!	!	!	!LO:TUP:a:problem=klamry łukowe w całym takcie	!	!	!	!	!	!	!	!	!	!	!	!	!
8C#\	.	.	24ee\LL	.	24gg\LL]	.	4C#/	-ſe-	.	.	.	.	.	.	.	8gg\
.	.	.	24dd\	.	24ff#\	.	.	.	.	.	.	.	.	.	.	.
.	.	.	24cc#\JJ	.	24ee\JJ	.	.	.	.	.	.	.	.	.	.	.
!	!	!	!	!	!LO:TUP:a:problem=łuki klamrowe w t. 22 i 23	!	!	!	!	!	!	!	!	!	!	!
8C#\J	.	.	24gg\LL	.	24bb\LL	.	.	.	8A\	-ſe-	8g\	-se-	8ee\	-se-	.	8gg\J
.	.	.	24ff#\	.	24aa\	.	.	.	.	.	.	.	.	.	.	.
.	.	.	24ee\JJ	.	24gg\JJ	.	.	.	.	.	.	.	.	.	.	.
8D\L	.	.	4dd\	.	4ff#\	.	4D/	-re-	4A\	-re-	4f#\	-re-	4dd\	-re-	.	8r
8D\	.	.	.	.	.	.	.	.	.	.	.	.	.	.	.	8ff#\L
!	!	!	!LO:LB:g=original	!	!	!	!	!	!	!	!	!	!	!	!	!
8D\	.	.	16dd\LL|	.	24ff#\LL	.	4D/	-re	4A\	-re	4f#\	-re	4dd\	-re	.	8ff#\
.	.	.	.	.	24ee\	.	.	.	.	.	.	.	.	.	.	.
.	.	.	16a\JJ|	.	.	.	.	.	.	.	.	.	.	.	.	.
.	.	.	.	.	24dd\JJ	.	.	.	.	.	.	.	.	.	.	.
8D\J	.	.	24ff#\LL	.	24aa\LL	.	.	.	.	.	.	.	.	.	.	8ff#\J
.	.	.	24ee\	.	24gg\	.	.	.	.	.	.	.	.	.	.	.
.	.	.	24dd\JJ	.	24ff#\JJ	.	.	.	.	.	.	.	.	.	.	.
=23	=23	=23	=23	=23	=23	=23	=23	=23	=23	=23	=23	=23	=23	=23	=23	=23
8G\L	.	.	8b/	.	8b\	.	(4G\	no-	(4B\	no-	4g\	no-	(4.dd\	no-	2.ryy	8rcc
!	!	!	!LO:TUP:b:problem=klamry łukowe do końca utworu	!	!	!	!	!	!	!	!	!	!	!	!	!
8G\	.	.	24b/LL	.	24gg\LL	.	.	.	.	.	.	.	.	.	.	8gg\L
.	.	.	24a/	.	24ff#\	.	.	.	.	.	.	.	.	.	.	.
.	.	.	24g/JJ	.	24ee\JJ	.	.	.	.	.	.	.	.	.	.	.
8A\	6 4	.	8f#/L	.	8dd\L	.	4A\)	.	4A\)	.	8f#\L	.	.	.	.	8ff#\
!	!	!	!	!	!LO:SIC:s=8cc#\J:v	!	!	!	!	!	!	!	!	!	!	!
8A\J	5 3	.	8e/J	.	8cc\J	.	.	.	.	.	8e\J	.	8cc#\)	.	.	8ee\J
!	!	!	!	!	!LO:SIC:s=8qqcc#/:v	!	!	!	!	!	!	!	!	!	!	!
.	.	.	.	.	8qqcc/	.	.	.	.	.	.	.	.	.	.	.
8D\L	.	.	8f#/L	.	4dd\	.	4D\	-bis	4A\	-bis	4f#\	-biſ	4dd\	-biſ	.	8dd\L
8D\	.	.	8f#/	.	.	.	.	.	.	.	.	.	.	.	.	16a\L
.	.	.	.	.	.	.	.	.	.	.	.	.	.	.	.	16a\JJ
!	!	!	!	!	!	!	!	!	!	!	!	!	!	!	!	!LO:LB:g=original
!	!	!	!	!	!	!	!	!	!	!	!	!	!	!	!LO:TX:a:t=P:problem=mixed beam	!LO:TX:a:t=P:problem=mixed beam
8F#\	.	.	8a/	.	8rg	.	4r	.	4r	.	4r	.	4r	.	8d/L	8f#/L
8D\J	.	.	8f#/J	.	8A/	.	.	.	.	.	.	.	.	.	8ff#\J	8aa\J
=24	=24	=24	=24	=24	=24	=24	=24	=24	=24	=24	=24	=24	=24	=24	=24	=24
*	*	*	*	*	*	*	*	*	*	*	*	*	*	*	*2\right	*2\right
!	!	!	!	!LO:DY:b:t=po	!	!LO:DY:b:t=pio	!	!	!	!	!	!	!	!	!	!
8r	.	.	4e/	p	4g/	p	4C#/	mi-	4A\	mi-	4.e\	mi-	4.g/	mi-	2ee\	2gg\
8C#/L	5	.	.	.	.	.	.	.	.	.	.	.	.	.	.	.
!	!	!	!	!	!LO:TUP:b:problem=klamry łukowe w t. 24 i 25	!	!	!	!	!	!	!	!	!	!	!
8C#/	.	.	24e/LL	.	24g/LL	.	4C#/	-ſe-	4A\	-ſe-	.	.	.	.	.	.
.	.	.	24d/	.	24f#/	.	.	.	.	.	.	.	.	.	.	.
.	.	.	24c#/JJ	.	24e/JJ	.	.	.	.	.	.	.	.	.	.	.
8C#/J	.	.	24f#/LL	.	24b/LL	.	.	.	.	.	8e\	-se-	8g/	-se-	.	.
.	.	.	24e/	.	24a/	.	.	.	.	.	.	.	.	.	.	.
.	.	.	24d/JJ	.	24g/JJ	.	.	.	.	.	.	.	.	.	.	.
.	.	.	8qqe/	.	8qqg/	.	.	.	.	.	.	.	.	.	.	.
!	!	!	!	!	!	!	!	!	!	!	!LO:LB:g=original	!	!	!	!	!
8r	.	.	4d/	.	4f#/	.	4D/	-re-	4A\	-re-	4d\	-re-	4f#/	-re-	2dd\	2ff#\
8D\L	.	.	.	.	.	.	.	.	.	.	.	.	.	.	.	.
8D\	.	.	16d/LL|	.	24f#/LL	.	4D/	-re	4A\	-re	4f#\	-re	4a\	-re	.	.
.	.	.	.	.	24e/	.	.	.	.	.	.	.	.	.	.	.
.	.	.	16A/JJ|	.	.	.	.	.	.	.	.	.	.	.	.	.
.	.	.	.	.	24d/JJ	.	.	.	.	.	.	.	.	.	.	.
8D\J	.	.	24f#/LL	.	24a/LL	.	.	.	.	.	.	.	.	.	.	.
.	.	.	24e/	.	24g/	.	.	.	.	.	.	.	.	.	.	.
.	.	.	24d/JJ	.	24f#/JJ	.	.	.	.	.	.	.	.	.	.	.
!	!	!	!	!	!LO:LB:g=original	!	!LO:LB:g=original	!	!	!	!	!	!	!	!	!
=25	=25	=25	=25	=25	=25	=25	=25	=25	=25	=25	=25	=25	=25	=25	=25	=25
8G\L	.	.	8e/	.	24e/LL	.	(4G\	no-	(4B\	no-	8d\L	no-	4g/	no-	4dd\	8.ee\L
.	.	.	.	.	24f#/	.	.	.	.	.	.	.	.	.	.	.
.	.	.	.	.	24g/JJ	.	.	.	.	.	.	.	.	.	.	.
8G\	.	.	24g/LL	.	24b/LL	.	.	.	.	.	8e\J	.	.	.	.	.
.	.	.	24f#/	.	24a/	.	.	.	.	.	.	.	.	.	.	.
.	.	.	.	.	.	.	.	.	.	.	.	.	.	.	.	32ff#\LL
.	.	.	24e/JJ	.	24g/JJ	.	.	.	.	.	.	.	.	.	.	.
.	.	.	.	.	.	.	.	.	.	.	.	.	.	.	.	32gg\JJJ
8A\	3	.	8d/L	.	8f#/L	.	4A\)	.	4A\)	.	8d\L	.	(8f#/L	.	8dd\L	8ff#\L
8A\J	.	.	8c#/J	.	8e/J	.	.	.	.	.	8c#\J	.	8e/J)	.	8a\J	8ee\J
!	!	!	!	!	!	!LO:DY:b:t=for	!	!	!	!	!	!	!	!	!	!
4D/	.	.	4d/	.	4d/	f	4D\	-bis	4A\	-bis	4d\	-biſ	4f#/	-biſ	4f#/	4dd\
!LO:TX:a:t=P:problem=na kresce taktowej, pod nutami oznaczenie przypominające ligaturę	!	!	!	!	!	!	!LO:TX:a:t=P:problem=caudy w dół z prawej strony	!	!	!	!	!	!	!	!	!
4d\	.	.	4ff#\	.	4aa\	.	8d\	Mi-	8d\	mi-	8f#\	mi-	8a\	mi-	4dd\	4ff#\
.	.	.	.	.	.	.	8d\	-ſe-	8f#\	-ſe-	8f#\	-ſe-	8a\	-se-	.	.
!	!	!	!LO:LB:g=original	!	!	!	!	!	!	!	!	!	!	!	!	!
=26	=26	=26	=26	=26	=26	=26	=26	=26	=26	=26	=26	=26	=26	=26	=26	=26
*	*	*	*2\right	*	*	*	*	*	*	*	*	*	*	*	*	*
4d\	2	.	2ee\	.	4gg#X\	.	4d\	-re-	4e\	-re-	4g#X\	-re-	4b\	-re-	4ee\	4ee\
4c#\	6	.	.	.	4aa\	.	4c#\	-re	4e\	-re	4a\	-re	4cc#\	-re	4ee\	2aa\
*2\right	*	*	*	*	*	*	*2\right	*	*2\right	*	*	*	*2\right	*	*	*
2B\	7:6	.	2dd\	.	4aa\	.	2B\	no-	2d\	no-	(4a\	no-	2dd\	no-	2dd\	.
.	.	.	.	.	4gg#X\	.	.	.	.	.	4g#X\)	.	.	.	.	4gg#X\
=27	=27	=27	=27	=27	=27	=27	=27	=27	=27	=27	=27	=27	=27	=27	=27	=27
*	*	*	*	*	*2\right	*	*	*	*	*	*	*	*	*	*	*
!	!	!	!	!	!LO:N:vis=2	!	!	!	!	!	!	!	!	!	!	!
!LO:TX:b:t=Dona nobis \nùt Kyrie All:problem=koniec tekstu nieczytelny, pod "All" oznaczenie przypominające repetycję tekstu	!	!	!LO:TX:a:t=Dona nobis ùt Kyrie Preſto.	!	!LO:TX:a:t=Dona nobis ùt Kyrie Preſto.	!	!LO:TX:a:t=Dona nobis ùt Kyrie \n 3\8	!	!LO:TX:a:t=Dona nobis \nut Kyrie	!	!LO:TX:a:t=Dona nobis \n ut Kyrie \n Presto	!	!	!	!LO:TX:b:t=Dona nobis ut Kyrie Presto	!LO:TX:a:t=Dona nobis ut Kyrie \n Presto
1A;	.	.	1cc#;	.	1aa;;<	.	1A	-bis.	1e	-bis	1a	-biſ.	1cc#;	-biſ	1ee;	1aa;
==28	==28	==28	==28	==28	==28	==28	==28	==28	==28	==28	==28	==28	==28	==28	==28	==28
*-	*-	*-	*-	*-	*-	*-	*-	*-	*-	*-	*-	*-	*-	*-	*-	*-
!!!system-decoration: [(s1,s2)][(s3,s4,s5,s6)][(s7,s8)]s9
!!!RDF**kern: < = below
!!!RDF**kern: | = vertical stroke
!!!ENC: Zofia Niedbalska
!!!END: 2020-11-21
!!!ENC: Anastazja Marusiak
!!!END: 2020-05-26
